assets/icons/18px/outline/rectangle-right-filled-rounded-18px.svg

<svg fill="none" height="18" width="18" xmlns="http://www.w3.org/2000/svg"><g fill="#fff"><path d="m15.414 13.414.354.354zm.086-5.414v2h1v-2zm-3.5 5.5h-6v1h6zm-9.5-3.5v-2h-1v2zm3.5-5.5h6v-1h-5.999v1zm0 9c-.957 0-1.624-.001-2.128-.069-.49-.065-.748-.186-.933-.37l-.707.707c.402.401.907.574 1.507.654.586.08 1.332.078 2.261.078zm-4.5-3.5c0 .929-.001 1.675.078 2.261.08.6.253 1.106.654 1.507l.707-.707c-.184-.185-.304-.444-.37-.933-.069-.504-.069-1.171-.069-2.128zm14 0c0 .957-.001 1.624-.069 2.128-.065.49-.186.748-.37.933l.707.707c.401-.402.574-.907.654-1.507.08-.585.078-1.332.078-2.261zm-3.5 4.5c.929 0 1.675.001 2.261-.078.6-.08 1.106-.253 1.507-.654l-.707-.707c-.185.184-.444.305-.933.37-.504.068-1.171.069-2.128.069zm4.5-6.5c0-.929.001-1.675-.078-2.261-.08-.6-.253-1.105-.654-1.507l-.707.707c.184.185.305.444.37.933.068.504.069 1.171.069 2.128zm-4.5-3.5c.956 0 1.624.001 2.128.069.49.066.748.186.933.37l.707-.707c-.402-.401-.907-.574-1.507-.654-.586-.08-1.333-.078-2.262-.078v1zm-9.5 3.5c0-.957.001-1.624.069-2.128.066-.49.186-.748.37-.933l-.707-.707c-.401.402-.574.907-.654 1.507-.08.586-.078 1.331-.078 2.261zm3.5-4.5c-.928 0-1.675-.001-2.261.078-.6.08-1.105.253-1.507.654l.707.707c.185-.184.444-.304.933-.37.504-.069 1.172-.069 2.129-.069v-1z"/><path d="m16 10v-2c0-1.886 0-2.828-.586-3.414s-1.528-.586-3.414-.586h-3v10h3c1.886 0 2.828 0 3.414-.586s.586-1.528.586-3.414z"/></g></svg>

<svg width="18" height="18" fill="none" xmlns="http://www.w3.org/2000/svg"><path d="M15.414 13.414l.354.354-.354-.354zM15.5 8v2h1V8h-1zM12 13.5H6v1h6v-1zM2.5 10V8h-1v2h1zM6 4.5H12v-1H6.001v1zm0 9c-.957 0-1.624-.001-2.128-.069-.49-.065-.748-.186-.933-.37l-.707.707c.402.401.907.574 1.507.654.586.08 1.332.078 2.261.078v-1zM1.5 10c0 .929-.001 1.675.078 2.261.08.6.253 1.106.654 1.507l.707-.707c-.184-.185-.304-.444-.37-.933C2.5 11.624 2.5 10.957 2.5 10h-1zm14 0c0 .957-.001 1.624-.069 2.128-.065.49-.186.748-.37.933l.707.707c.401-.402.574-.907.654-1.507.08-.585.078-1.332.078-2.261h-1zM12 14.5c.929 0 1.675.001 2.261-.078.6-.08 1.106-.253 1.507-.654l-.707-.707c-.185.184-.444.305-.933.37-.504.068-1.171.069-2.128.069v1zM16.5 8c0-.929.001-1.675-.078-2.261-.08-.6-.253-1.105-.654-1.507l-.707.707c.184.185.305.444.37.933.068.504.069 1.171.069 2.128h1zM12 4.5c.956 0 1.624.001 2.128.069.49.066.748.186.933.37l.707-.707c-.402-.401-.907-.574-1.507-.654-.586-.08-1.333-.078-2.262-.078v1zM2.5 8c0-.957.001-1.624.069-2.128.066-.49.186-.748.37-.933l-.707-.707c-.401.402-.574.907-.654 1.507C1.498 6.325 1.5 7.07 1.5 8h1zM6 3.5c-.928 0-1.675-.001-2.261.078-.6.08-1.105.253-1.507.654l.707.707c.185-.184.444-.304.933-.37C4.376 4.5 5.044 4.5 6.001 4.5v-1z" fill="#fff"/><path d="M16 10V8c0-1.886 0-2.828-.586-3.414C14.828 4 13.886 4 12 4H9v10h3c1.886 0 2.828 0 3.414-.586C16 12.828 16 11.886 16 10z" fill="#fff"/></svg>
